packages/foundations/assets/icons/functional/images/business & payment/voucher.svg

<svg xmlns="http://www.w3.org/2000/svg" width="32" height="32" fill="none"><path fill="#1A1C1F" fill-rule="evenodd" d="M4.22 6.111c-.677.182-1.359.683-1.747 1.285a4 4 0 0 0-.325.693l-.147.418v2.32c-.001 1.276.017 2.385.04 2.465.051.183.328.503.523.603.081.042.342.098.579.125.973.109 1.647.721 1.815 1.65.155.855-.318 1.769-1.1 2.127a3.3 3.3 0 0 1-.757.2c-.253.035-.512.091-.574.125-.166.09-.44.419-.486.586-.023.08-.041 1.189-.04 2.465v2.32l.147.418c.34.965.974 1.599 1.941 1.941l.418.148h22.986l.418-.148c.967-.342 1.601-.976 1.941-1.941l.147-.418v-2.32c.001-1.276-.017-2.385-.04-2.465-.046-.164-.319-.496-.478-.581-.058-.031-.319-.089-.58-.128a3.5 3.5 0 0 1-.765-.204c-.776-.356-1.249-1.273-1.094-2.125.168-.929.842-1.541 1.815-1.65.237-.027.498-.083.579-.125.195-.1.472-.42.523-.603.023-.08.041-1.189.04-2.465v-2.32l-.147-.418c-.269-.764-.774-1.37-1.429-1.714-.715-.375.249-.349-12.448-.345-9.828.003-11.509.015-11.755.081m23.128 1.972c.263.11.432.272.551.53.089.193.099.374.1 1.874l.001 1.66-.168.033c-.305.061-.94.403-1.34.72-1.434 1.14-1.886 3.155-1.086 4.833.447.935 1.189 1.616 2.183 2.003l.384.149.016 1.591c.011 1.051-.004 1.66-.043 1.794-.08.276-.391.609-.631.675-.291.081-22.385.075-22.627-.005-.248-.083-.51-.343-.609-.603-.068-.181-.079-.482-.067-1.832l.015-1.616.439-.177c.966-.389 1.691-1.063 2.128-1.979.8-1.678.348-3.693-1.086-4.833-.4-.317-1.035-.659-1.34-.72L4 12.147v-1.649c0-1.367.014-1.682.083-1.846a.98.98 0 0 1 .53-.551c.206-.095.638-.099 11.375-.1 9.956-.001 11.183.008 11.36.082m-15.437 3.084c-.321.105-.555.262-.838.565-.379.406-.48.674-.484 1.282-.002.468.011.535.171.86.205.418.54.745.964.944.264.124.37.142.836.142s.572-.018.836-.142c.928-.435 1.377-1.458 1.059-2.414-.15-.449-.547-.899-.995-1.125-.267-.135-.377-.158-.818-.17-.322-.009-.59.012-.731.058m7.662.032c-.161.086-8.135 7.827-8.385 8.139-.356.446-.176 1.178.353 1.429.242.115.708.111.927-.007.095-.051 2.02-1.904 4.278-4.117 4.442-4.352 4.323-4.22 4.245-4.706-.107-.669-.839-1.05-1.418-.738m-.395 5.891c-1.069.448-1.548 1.607-1.08 2.617.708 1.532 2.936 1.54 3.642.012.133-.288.153-.396.153-.813 0-.435-.016-.515-.173-.834a2.02 2.02 0 0 0-.964-.943c-.445-.208-1.135-.225-1.578-.039"/></svg>

<svg width="32" height="32" viewBox="0 0 32 32" fill="none" xmlns="http://www.w3.org/2000/svg"><path d="M4.220 6.111 C 3.543 6.293,2.861 6.794,2.473 7.396 C 2.375 7.548,2.229 7.860,2.148 8.089 L 2.001 8.507 2.001 10.827 C 2.000 12.103,2.018 13.212,2.041 13.292 C 2.092 13.475,2.369 13.795,2.564 13.895 C 2.645 13.937,2.906 13.993,3.143 14.020 C 4.116 14.129,4.790 14.741,4.958 15.670 C 5.113 16.525,4.640 17.439,3.858 17.797 C 3.695 17.872,3.356 17.961,3.101 17.997 C 2.848 18.032,2.589 18.088,2.527 18.122 C 2.361 18.212,2.087 18.541,2.041 18.708 C 2.018 18.788,2.000 19.897,2.001 21.173 L 2.001 23.493 2.148 23.911 C 2.488 24.876,3.122 25.510,4.089 25.852 L 4.507 26.000 16.000 26.000 L 27.493 26.000 27.911 25.852 C 28.878 25.510,29.512 24.876,29.852 23.911 L 29.999 23.493 29.999 21.173 C 30.000 19.897,29.982 18.788,29.959 18.708 C 29.913 18.544,29.640 18.212,29.481 18.127 C 29.423 18.096,29.162 18.038,28.901 17.999 C 28.640 17.960,28.296 17.868,28.136 17.795 C 27.360 17.439,26.887 16.522,27.042 15.670 C 27.210 14.741,27.884 14.129,28.857 14.020 C 29.094 13.993,29.355 13.937,29.436 13.895 C 29.631 13.795,29.908 13.475,29.959 13.292 C 29.982 13.212,30.000 12.103,29.999 10.827 L 29.999 8.507 29.852 8.089 C 29.583 7.325,29.078 6.719,28.423 6.375 C 27.708 6.000,28.672 6.026,15.975 6.030 C 6.147 6.033,4.466 6.045,4.220 6.111 M27.348 8.083 C 27.611 8.193,27.780 8.355,27.899 8.613 C 27.988 8.806,27.998 8.987,27.999 10.487 L 28.000 12.147 27.832 12.180 C 27.527 12.241,26.892 12.583,26.492 12.900 C 25.058 14.040,24.606 16.055,25.406 17.733 C 25.853 18.668,26.595 19.349,27.589 19.736 L 27.973 19.885 27.989 21.476 C 28.000 22.527,27.985 23.136,27.946 23.270 C 27.866 23.546,27.555 23.879,27.315 23.945 C 27.024 24.026,4.930 24.020,4.688 23.940 C 4.440 23.857,4.178 23.597,4.079 23.337 C 4.011 23.156,4.000 22.855,4.012 21.505 L 4.027 19.889 4.466 19.712 C 5.432 19.323,6.157 18.649,6.594 17.733 C 7.394 16.055,6.942 14.040,5.508 12.900 C 5.108 12.583,4.473 12.241,4.168 12.180 L 4.000 12.147 4.000 10.498 C 4.000 9.131,4.014 8.816,4.083 8.652 C 4.193 8.389,4.355 8.220,4.613 8.101 C 4.819 8.006,5.251 8.002,15.988 8.001 C 25.944 8.000,27.171 8.009,27.348 8.083 M11.911 11.167 C 11.590 11.272,11.356 11.429,11.073 11.732 C 10.694 12.138,10.593 12.406,10.589 13.014 C 10.587 13.482,10.600 13.549,10.760 13.874 C 10.965 14.292,11.300 14.619,11.724 14.818 C 11.988 14.942,12.094 14.960,12.560 14.960 C 13.026 14.960,13.132 14.942,13.396 14.818 C 14.324 14.383,14.773 13.360,14.455 12.404 C 14.305 11.955,13.908 11.505,13.460 11.279 C 13.193 11.144,13.083 11.121,12.642 11.109 C 12.320 11.100,12.052 11.121,11.911 11.167 M19.573 11.199 C 19.412 11.285,11.438 19.026,11.188 19.338 C 10.832 19.784,11.012 20.516,11.541 20.767 C 11.783 20.882,12.249 20.878,12.468 20.760 C 12.563 20.709,14.488 18.856,16.746 16.643 C 21.188 12.291,21.069 12.423,20.991 11.937 C 20.884 11.268,20.152 10.887,19.573 11.199 M19.178 17.090 C 18.109 17.538,17.630 18.697,18.098 19.707 C 18.806 21.239,21.034 21.247,21.740 19.719 C 21.873 19.431,21.893 19.323,21.893 18.906 C 21.893 18.471,21.877 18.391,21.720 18.072 C 21.514 17.655,21.179 17.327,20.756 17.129 C 20.311 16.921,19.621 16.904,19.178 17.090 " fill="#1A1C1F" stroke="none" fill-rule="evenodd"></path></svg>
